build/img/in.svg

<svg width="20" height="20" viewBox="0 0 20 20" fill="none" xmlns="http://www.w3.org/2000/svg">
<path fill-rule="evenodd" clip-rule="evenodd" d="M5.80005 0H14.2C17.3999 0 20 2.6001 20 5.7998V14.2002C20 17.4033 17.4033 20 14.2 20H5.80005C2.6001 20 0 17.3999 0 14.2002V5.7998C0 2.59668 2.59668 0 5.80005 0ZM5.6001 2C3.61182 2 2 3.61182 2 5.6001V14.3999C2 16.3901 3.61011 18 5.6001 18H14.3999C16.3882 18 18 16.3882 18 14.3999V5.6001C18 3.60986 16.3899 2 14.3999 2H5.6001ZM16.5 4.75C16.5 4.05957 15.9404 3.5 15.25 3.5C14.5596 3.5 14 4.05957 14 4.75C14 5.44043 14.5596 6 15.25 6C15.9404 6 16.5 5.44043 16.5 4.75ZM10 5C12.7615 5 15 7.23877 15 10C15 12.7612 12.7615 15 10 15C7.23853 15 5 12.7612 5 10C5 7.23877 7.23853 5 10 5ZM7 10C7 8.34326 8.34326 7 10 7C11.6567 7 13 8.34326 13 10C13 11.6567 11.6567 13 10 13C8.34326 13 7 11.6567 7 10Z" fill="#91A1BB"/>
</svg>

<svg width="20" height="20" viewBox="0 0 20 20" fill="none" xmlns="http://www.w3.org/2000/svg"><path fill-rule="evenodd" clip-rule="evenodd" d="M5.8 0h8.4C17.4 0 20 2.6 20 5.8v8.4a5.8 5.8 0 0 1-5.8 5.8H5.8C2.6 20 0 17.4 0 14.2V5.8A5.8 5.8 0 0 1 5.8 0zm-.2 2A3.6 3.6 0 0 0 2 5.6v8.8C2 16.39 3.61 18 5.6 18h8.8a3.6 3.6 0 0 0 3.6-3.6V5.6C18 3.61 16.39 2 14.4 2H5.6zm10.9 2.75a1.25 1.25 0 1 0-2.5 0 1.25 1.25 0 0 0 2.5 0zM10 5a5 5 0 1 1 0 10 5 5 0 0 1 0-10zm-3 5a3 3 0 1 1 6 0 3 3 0 0 1-6 0z" fill="#91A1BB"/></svg>
